X:76
T: ICH WILL MICH UMSCHAUEN
N: E0685
O: Europa, Mitteleuropa, Deutschland, Hessen, Darmstadt, Meiningen;
R: Liebes - Lied, Leid, Klage, Trennung
M: 3/4
L: 1/8
K: G
GB | d2d2ec | cBB2
dB | BAcAGF | G4
GB | d2d2ec | cBB2
dB | BAcAGF | G4
GB | d2BAGB | A2A2
GB | d2BAGB | A4
GB | d2d2ec | cBB2
dB | BAcAGF | G4

@@@ Tune index: 4389
